X:708
T:Reel 708
M:4/4
K:Dmaj
L:1/8
D>C (3CB,A, EA,F2|E>A, (3A,B,A, EA,FA,|EA, (3A,B,A, B,CDE|FGAF D2CD:|E2EF GEFD|E>A, (3A,A,A, E2E2|G2GE F2FD|EA,EC D2A,2|G>E (3EDE F>D (3FEF |EFGA B2FG|AGFE DCB,C|EFED CDB,D|
